public/images/grad-courses/big_data.svg

<svg xmlns="http://www.w3.org/2000/svg" xml:space="preserve" style="fill-rule:evenodd;clip-rule:evenodd;stroke-linejoin:round;stroke-miterlimit:2" viewBox="0 0 2400 1800"><path d="M0 0h2400v1800H0z" style="fill:url(#a)"/><path d="M708.542 461.709h982.918v142.202c0 78.483-220.22 142.201-491.46 142.201-271.243 0-491.458-63.718-491.458-142.201z" style="fill:#b3c8ff" transform="translate(-321.009 683.542)scale(.87139)"/><ellipse cx="1124.9" cy="392.181" rx="630.292" ry="142.202" style="fill:#fff" transform="matrix(.67945 0 0 .87139 -39.656 744.127)"/><path d="M708.542 461.709h982.918v142.202c0 78.483-220.22 142.201-491.46 142.201-271.243 0-491.458-63.718-491.458-142.201z" style="fill:#b3c8ff" transform="translate(-321.009 435.716)scale(.87139)"/><ellipse cx="1124.9" cy="392.181" rx="630.292" ry="142.202" style="fill:#fff" transform="matrix(.67945 0 0 .87139 -39.656 496.302)"/><path d="M708.542 461.709h982.918v142.202c0 78.483-220.22 142.201-491.46 142.201-271.243 0-491.458-63.718-491.458-142.201z" style="fill:#b3c8ff" transform="translate(-321.009 187.89)scale(.87139)"/><ellipse cx="1124.9" cy="392.181" rx="630.292" ry="142.202" style="fill:#fff" transform="matrix(.67945 0 0 .87139 -39.656 248.476)"/><path d="M1200 499.51v778.08c0 53.65 46.27 97.21 103.25 97.21h847.5c56.98 0 103.25-43.56 103.25-97.21V523.473H1200zm950.75-97.216h-847.5z" style="fill:#fff" transform="matrix(.83844 0 0 .8905 216.412 108.746)"/><path d="M2154.65 402.294H1339.2c-54.83 0-99.35 40.162-99.35 89.63v22.093H2254v-22.093c0-49.468-44.52-89.63-99.35-89.63" style="fill:#b3c8ff" transform="matrix(.87139 0 0 .96587 142.147 78.426)"/><path d="M1239.85 402.294H2254v111.723H1239.85z" style="fill:#b3c8ff" transform="matrix(.01775 0 0 7.75149 1327.76 -2651.38)"/><path d="M1239.85 402.294H2254v111.723H1239.85z" style="fill:#b3c8ff" transform="matrix(.01775 0 0 7.75149 1694.98 -2651.38)"/><path d="M1239.85 402.294H2254v111.723H1239.85z" style="fill:#b3c8ff" transform="matrix(.87139 0 0 .96587 142.147 294.246)"/><path d="M1239.85 402.294H2254v111.723H1239.85z" style="fill:#b3c8ff" transform="matrix(.87139 0 0 .96587 142.147 511.436)"/><path d="M1239.85 402.294H2254v111.723H1239.85z" style="fill:#b3c8ff" transform="matrix(.87139 0 0 .96587 142.147 727.257)"/><defs><linearGradient id="a" x1="0" x2="1" y1="0" y2="0" gradientTransform="matrix(2100 2100 -2100 2100 150 -150)" gradientUnits="userSpaceOnUse"><stop offset="0" style="stop-color:#b143ff;stop-opacity:1"/><stop offset="1" style="stop-color:#00c1ea;stop-opacity:1"/></linearGradient></defs></svg>

<?xml version="1.0" encoding="UTF-8" standalone="no"?>
<!DOCTYPE svg PUBLIC "-//W3C//DTD SVG 1.1//EN" "http://www.w3.org/Graphics/SVG/1.1/DTD/svg11.dtd">
<svg width="100%" height="100%" viewBox="0 0 2400 1800" version="1.1" xmlns="http://www.w3.org/2000/svg" xmlns:xlink="http://www.w3.org/1999/xlink" xml:space="preserve" xmlns:serif="http://www.serif.com/" style="fill-rule:evenodd;clip-rule:evenodd;stroke-linejoin:round;stroke-miterlimit:2;">
    <rect x="0" y="0" width="2400" height="1800" style="fill:url(#_Linear1);"/>
    <g transform="matrix(0.871388,0,0,0.871388,-321.009,683.542)">
        <path d="M708.542,461.709L1691.46,461.709L1691.46,603.911C1691.46,682.394 1471.24,746.112 1200,746.112C928.757,746.112 708.542,682.394 708.542,603.911L708.542,461.709Z" style="fill:rgb(179,200,255);"/>
    </g>
    <g transform="matrix(0.679447,0,0,0.871388,-39.6557,744.127)">
        <ellipse cx="1124.9" cy="392.181" rx="630.292" ry="142.202" style="fill:white;"/>
    </g>
    <g transform="matrix(0.871388,0,0,0.871388,-321.009,435.716)">
        <path d="M708.542,461.709L1691.46,461.709L1691.46,603.911C1691.46,682.394 1471.24,746.112 1200,746.112C928.757,746.112 708.542,682.394 708.542,603.911L708.542,461.709Z" style="fill:rgb(179,200,255);"/>
    </g>
    <g transform="matrix(0.679447,0,0,0.871388,-39.6557,496.302)">
        <ellipse cx="1124.9" cy="392.181" rx="630.292" ry="142.202" style="fill:white;"/>
    </g>
    <g transform="matrix(0.871388,0,0,0.871388,-321.009,187.89)">
        <path d="M708.542,461.709L1691.46,461.709L1691.46,603.911C1691.46,682.394 1471.24,746.112 1200,746.112C928.757,746.112 708.542,682.394 708.542,603.911L708.542,461.709Z" style="fill:rgb(179,200,255);"/>
    </g>
    <g transform="matrix(0.679447,0,0,0.871388,-39.6557,248.476)">
        <ellipse cx="1124.9" cy="392.181" rx="630.292" ry="142.202" style="fill:white;"/>
    </g>
    <g transform="matrix(0.83844,0,0,0.890501,216.412,108.746)">
        <path d="M1200,499.51L1200,1277.59C1200,1331.24 1246.27,1374.8 1303.25,1374.8L2150.75,1374.8C2207.73,1374.8 2254,1331.24 2254,1277.59L2254,523.473L1200,523.473L1200,499.51Z" style="fill:white;"/>
    </g>
    <g transform="matrix(0.83844,0,0,0.890501,216.412,108.746)">
        <path d="M2150.75,402.294L1303.25,402.294C1303.25,402.294 2150.75,402.294 2150.75,402.294Z" style="fill:white;"/>
    </g>
    <g transform="matrix(0.871388,0,0,0.965871,142.147,78.4256)">
        <path d="M2154.65,402.294L1339.2,402.294C1284.37,402.294 1239.85,442.456 1239.85,491.924L1239.85,514.017L2254,514.017L2254,491.924C2254,442.456 2209.48,402.294 2154.65,402.294Z" style="fill:rgb(179,200,255);"/>
    </g>
    <g transform="matrix(0.0177453,0,0,7.75149,1327.76,-2651.38)">
        <rect x="1239.85" y="402.294" width="1014.15" height="111.723" style="fill:rgb(179,200,255);"/>
    </g>
    <g transform="matrix(0.0177453,0,0,7.75149,1694.98,-2651.38)">
        <rect x="1239.85" y="402.294" width="1014.15" height="111.723" style="fill:rgb(179,200,255);"/>
    </g>
    <g transform="matrix(0.871388,0,0,0.965871,142.147,294.246)">
        <rect x="1239.85" y="402.294" width="1014.15" height="111.723" style="fill:rgb(179,200,255);"/>
    </g>
    <g transform="matrix(0.871388,0,0,0.965871,142.147,511.436)">
        <rect x="1239.85" y="402.294" width="1014.15" height="111.723" style="fill:rgb(179,200,255);"/>
    </g>
    <g transform="matrix(0.871388,0,0,0.965871,142.147,727.257)">
        <rect x="1239.85" y="402.294" width="1014.15" height="111.723" style="fill:rgb(179,200,255);"/>
    </g>
    <defs>
        <linearGradient id="_Linear1" x1="0" y1="0" x2="1" y2="0" gradientUnits="userSpaceOnUse" gradientTransform="matrix(2100,2100,-2100,2100,150,-150)"><stop offset="0" style="stop-color:rgb(177,67,255);stop-opacity:1"/><stop offset="1" style="stop-color:rgb(0,193,234);stop-opacity:1"/></linearGradient>
    </defs>
</svg>
